freshhema.svg

<svg viewBox="0 0 24 24" xmlns="http://www.w3.org/2000/svg"><path d="M11.7665 23.9141C8.11626 23.8647 4.62456 22.7184 1.84078 19.8706C-0.830702 17.138-0.554974 12.9394 2.41143 10.5222C2.77075 10.2293 2.98277 9.9089 3.09897 9.47009C3.43263 8.20969 3.78939 6.95524 4.15261 5.703C4.25607 5.34573 4.24775 5.11366 3.90644 4.83267C2.6469 3.79516 2.65216 1.58594 3.87434 0.493739C4.41611 0.00955865 5.02379-0.0160945 5.66546 0.272716C6.32989 0.571715 6.84397 1.06609 7.31252 1.60039C7.54645 1.86728 7.77376 1.91434 8.09434 1.83279C10.6996 1.1704 13.3079 1.17278 15.9126 1.83432C16.2408 1.91773 16.4654 1.85437 16.6915 1.59308C17.0969 1.1247 17.5511 0.699131 18.0973 0.393677C19.1576-0.199742 20.0514 0.0873685 20.6166 1.16055C21.2018 2.27178 21.3393 4.10045 19.9377 4.97622C19.7051 5.12147 19.744 5.3007 19.8032 5.51052C20.2056 6.94199 20.6054 8.37431 21.0009 9.80766C21.0651 10.0404 21.2027 10.1981 21.3865 10.352C24.9263 13.3172 24.8571 17.8262 21.2591 20.7306C18.5603 22.909 15.4625 23.8803 11.7665 23.9141" fill="#114479"/><path d="M22.5395 15.4841C22.5219 18.9559 18.8983 21.37 15.6971 20.0306C15.1719 19.8108 14.6693 19.5303 14.1734 19.2476C12.7121 18.4147 11.2643 18.4155 9.80698 19.2575C9.33265 19.5317 8.85119 19.8023 8.34832 20.0172C6.27417 20.9035 3.89999 20.259 2.50283 18.4532C1.10992 16.6531 1.10483 14.2565 2.48975 12.472C3.89727 10.6583 6.26125 10.011 8.33541 10.8924C8.81755 11.0973 9.28423 11.3487 9.73444 11.6181C11.2561 12.5291 12.763 12.5119 14.2793 11.6093C15.2677 11.0212 16.276 10.4998 17.4776 10.4965C20.2495 10.4891 22.5535 12.7482 22.5395 15.4841" fill="#ffffff"/><path d="M4.63985 9.28576C5.06508 7.74675 5.44596 6.28724 5.88105 4.84405C6.01152 4.41152 5.92692 4.26049 5.51052 4.1064C4.4015 3.69646 4.16535 3.0779 4.57716 2.01593C4.78663 1.47552 5.0734 1.46431 5.43968 1.80833C5.90653 2.2463 6.36608 2.69565 6.78978 3.17456C7.04851 3.46694 7.26665 3.56191 7.67132 3.43772C10.5497 2.55328 13.4431 2.5786 16.3227 3.42821C16.7544 3.55562 16.9917 3.48512 17.2496 3.14144C17.648 2.60986 18.1143 2.13485 18.6525 1.7368C18.9894 1.48758 19.2086 1.5467 19.3944 1.94203C19.8691 2.95167 19.6329 3.69714 18.5625 4.07361C18.0001 4.27119 18.0241 4.53027 18.1575 4.97962C18.5411 6.27212 18.8856 7.57601 19.2634 8.87022C19.3699 9.2353 19.3052 9.32585 18.9238 9.22664C17.2285 8.78595 15.6664 9.1857 14.1753 10.0108C13.6758 10.2872 13.2042 10.6345 12.6421 10.769C11.898 10.9473 11.1994 10.8023 10.5332 10.4133C9.46431 9.78931 8.37075 9.23632 7.10746 9.08019C6.29574 8.97962 5.5236 9.15834 4.63985 9.28576" fill="#5eade1"/><path d="M7.58808 21.7667C8.66211 21.5403 9.59581 21.0658 10.4938 20.5203C11.5147 19.9005 12.5036 19.9163 13.5267 20.5354C14.4174 21.0743 15.3465 21.5486 16.443 21.7808C14.2689 22.7402 9.28355 22.6532 7.58808 21.7667" fill="#5dade1"/><path d="M7.78056 6.97138C7.7634 6.60357 7.75898 6.23713 8.04626 5.95103C8.38111 5.61772 8.95329 5.63114 9.26928 5.97533C9.64728 6.38714 9.63454 7.64974 9.24856 8.02791C8.90878 8.36089 8.36582 8.34203 8.02554 7.99682C7.73401 7.70122 7.77733 7.3329 7.78056 6.97138" fill="#12457a"/><path d="M16.1874 6.97733C16.1874 7.16047 16.2017 7.34497 16.1844 7.52623C16.1504 7.87773 15.9654 8.11048 15.619 8.2226C15.2723 8.33473 14.9795 8.23858 14.7371 8.00243C14.3763 7.65093 14.4113 6.28606 14.7708 5.93965C15.0089 5.7098 15.2979 5.65441 15.5979 5.74191C15.8993 5.82957 16.1232 6.0353 16.171 6.36098C16.2005 6.56246 16.1766 6.77159 16.1766 6.97733L16.1874 6.97733Z" fill="#114479"/></svg>

<svg viewBox="0 0 24 24" xmlns="http://www.w3.org/2000/svg"><path d="M11.767 23.914c-3.65-.05-7.142-1.196-9.926-4.043-2.672-2.733-2.396-6.932.57-9.349.36-.293.572-.613.688-1.052.334-1.26.69-2.515 1.054-3.767.103-.357.095-.59-.247-.87-1.26-1.038-1.254-3.247-.032-4.34.542-.483 1.15-.51 1.791-.22.665.299 1.179.793 1.648 1.327.233.267.46.314.781.233a15.638 15.638 0 0 1 7.819.001c.328.084.552.02.779-.24.405-.47.86-.895 1.405-1.2 1.06-.594 1.954-.307 2.52.767.585 1.11.722 2.94-.68 3.815-.232.145-.193.325-.134.535.403 1.431.802 2.863 1.198 4.297.064.232.202.39.386.544 3.54 2.965 3.47 7.474-.128 10.379-2.699 2.178-5.796 3.15-9.492 3.183" fill="#114479"/><path d="M22.54 15.484c-.018 3.472-3.642 5.886-6.843 4.547-.525-.22-1.028-.5-1.524-.783-1.46-.833-2.909-.832-4.366.01-.474.274-.956.544-1.459.76-2.074.886-4.448.241-5.845-1.565-1.393-1.8-1.398-4.196-.013-5.981 1.407-1.814 3.771-2.461 5.845-1.58.483.205.95.457 1.4.726 1.521.911 3.028.894 4.544-.009.989-.588 1.997-1.11 3.199-1.113 2.771-.007 5.075 2.252 5.061 4.988" fill="#fff"/><path d="M4.64 9.286c.425-1.54.806-2.999 1.241-4.442.13-.432.046-.584-.37-.738-1.11-.41-1.346-1.028-.934-2.09.21-.54.496-.552.863-.208.467.438.926.888 1.35 1.367.259.292.477.387.881.263 2.879-.885 5.772-.86 8.652-.01.431.128.669.057.927-.287a6.833 6.833 0 0 1 1.402-1.404c.337-.25.557-.19.742.205.475 1.01.239 1.755-.831 2.132-.563.197-.539.456-.405.906.383 1.292.728 2.596 1.105 3.89.107.365.042.456-.34.357-1.694-.441-3.257-.041-4.748.784-.5.276-.97.623-1.533.758-.744.178-1.443.033-2.109-.356C9.464 9.79 8.371 9.236 7.107 9.08c-.811-.1-1.583.078-2.467.206" fill="#5eade1"/><path d="M7.588 21.767c1.074-.227 2.008-.701 2.906-1.247 1.02-.62 2.01-.604 3.033.015.89.54 1.82 1.014 2.916 1.246-2.174.96-7.16.872-8.855-.014" fill="#5dade1"/><path d="M7.78 6.971c-.017-.367-.021-.734.266-1.02a.863.863 0 0 1 1.223.024c.378.412.366 1.675-.02 2.053-.34.333-.883.314-1.223-.031-.292-.296-.249-.664-.245-1.026" fill="#12457a"/><path d="M16.187 6.977c0 .183.015.368-.003.55-.034.35-.219.583-.565.696-.347.112-.64.016-.882-.22-.36-.352-.326-1.717.034-2.063a.807.807 0 0 1 .827-.198c.301.088.525.293.573.619.03.201.006.41.006.616h.01Z" fill="#114479"/></svg>
